% begin graphic: n=0

; beginfig(1) ; defaultfont:="file:lmroman10-regular*default"; ;fill fullcircle scaled 4cm withcolor blue ; label.top(btex \color [white]{\bf This is a test.} etex, origin); ;; endfig ;
% end graphic

