% begin graphic: n=0, trialrun=false, multipass=false, isextrapass=false

; beginfig(1) ; 
boolean mfun_first_run ; mfun_first_run := true ;
boolean mfun_trial_run ; mfun_trial_run := false ;
defaultfont:="LMRoman-Regular*default"; CurrentLayout:=""; def OverlayLineColor=black enddef; def OverlayColor =black enddef; 
;
fill fullcircle scaled 4cm withcolor blue ; label.top(btex \color [white]{\bf This is a test.} etex, origin); ;
; endfig ;
% end graphic

