% begin graphic: n=0

; beginfig(1) ; 
defaultfont:="LMRoman-Regular*default"; CurrentLayout:=""; def OverlayLineColor=black enddef; def OverlayColor =black enddef; 
;
fill fullcircle scaled 4cm withcolor blue ; label.top(btex \color [white]{\bf This is a test.} etex, origin); ;
; endfig ;
% end graphic

