% begin graphic: n=0, trialrun=false, multipass=false, isextrapass=false

; beginfig(1) ; 
boolean mfun_first_run ; mfun_first_run := true ;
boolean mfun_trial_run ; mfun_trial_run := false ;
;
if unknown context_flow : input mp-char.mpiv ; fi ;
flow_begin_chart(0,3,4);
flow_grid_width     := 200.90549pt ;
flow_grid_height    := 197.811pt ;
flow_shape_width    := 144pt ;
flow_shape_height   := 84pt ;
flow_chart_offset   := 56.9055pt ;
flow_label_offset   := 6pt ;
flow_exit_offset    := 0pt ;
flow_comment_offset := 6pt ;
flow_connection_line_width  := 1.79993pt ;
flow_connection_smooth_size := 4.5pt ;
flow_connection_arrow_size  := 4.5pt ;
flow_connection_dash_size   := 4.5pt ;
flow_chart_offset := 56.9055pt ;
flow_reverse_y := true ;
flow_begin_sub_chart ;
flow_shape_line_color := "FLOWframecolor" ;
flow_shape_fill_color := "FLOWbackgroundcolor" ;
flow_shape_line_width := 1.79993pt ; 
flow_peepshape := false ;
flow_new_shape(2,1,24) ;
flow_end_sub_chart ;
flow_begin_sub_chart ;
flow_shape_line_color := "FLOWframecolor" ;
flow_shape_fill_color := "FLOWbackgroundcolor" ;
flow_shape_line_width := 1.79993pt ; 
flow_peepshape := false ;
flow_new_shape(2,3,24) ;
flow_end_sub_chart ;
flow_begin_sub_chart ;
flow_shape_line_color := "FLOWframecolor" ;
flow_shape_fill_color := "FLOWbackgroundcolor" ;
flow_shape_line_width := 1.79993pt ; 
flow_peepshape := false ;
flow_new_shape(1,3,24) ;
flow_end_sub_chart ;
flow_begin_sub_chart ;
flow_shape_line_color := "FLOWframecolor" ;
flow_shape_fill_color := "FLOWbackgroundcolor" ;
flow_shape_line_width := 1.79993pt ; 
flow_peepshape := false ;
flow_new_shape(3,3,24) ;
flow_end_sub_chart ;
flow_begin_sub_chart ;
flow_shape_line_color := "FLOWframecolor" ;
flow_shape_fill_color := "FLOWbackgroundcolor" ;
flow_shape_line_width := 1.79993pt ; 
flow_peepshape := false ;
flow_new_shape(2,2,24) ;
flow_end_sub_chart ;
flow_begin_sub_chart ;
flow_shape_line_color := "FLOWframecolor" ;
flow_shape_fill_color := "FLOWbackgroundcolor" ;
flow_shape_line_width := 1.79993pt ; 
flow_peepshape := false ;
flow_new_shape(2,4,24) ;
flow_end_sub_chart ;
flow_smooth := true ;
flow_dashline := false ;
flow_arrowtip := true ;
flow_touchshape := false ;
flow_dsp_x := 0 ; flow_dsp_y := 0 ;
flow_connection_line_color := "FLOWlinecolor" ;
flow_connection_line_width := 1.79993pt ;
flow_connect_left_left (1) (2,1,0) (2,3,0) ;
flow_dsp_x := 0 ; flow_dsp_y := 0 ;
flow_smooth := true ;
flow_dashline := false ;
flow_arrowtip := true ;
flow_touchshape := false ;
flow_dsp_x := 0 ; flow_dsp_y := 0 ;
flow_connection_line_color := "FLOWlinecolor" ;
flow_connection_line_width := 1.79993pt ;
flow_connect_top_right (2) (2,1,0) (2,1,0) ;
flow_dsp_x := 0 ; flow_dsp_y := 0 ;
flow_chart_draw_text(2,1,textext("\setvariables[flowcell:text][x=2,y=1,n=1,align={},figure={},overlay={},destination={}]")) ;
flow_chart_draw_comment(2,1,1,"lt",0,textext("\doFLOWlabel{2}{1}{2}")) ;
flow_chart_draw_comment(2,1,1,"lb",0,textext("\doFLOWlabel{2}{1}{3}")) ;
flow_chart_draw_comment(2,1,1,"rt",0,textext("\doFLOWlabel{2}{1}{4}")) ;
flow_chart_draw_comment(2,1,1,"rb",0,textext("\doFLOWlabel{2}{1}{5}")) ;
flow_chart_draw_comment(2,1,1,"tl:*",0,textext("\doFLOWlabel{2}{1}{6}")) ;
flow_chart_draw_comment(2,1,1,"tr:*",0,textext("\doFLOWlabel{2}{1}{7}")) ;
flow_chart_draw_comment(2,1,1,"bl:*",0,textext("\doFLOWlabel{2}{1}{8}")) ;
flow_chart_draw_comment(2,1,1,"br:*",0,textext("\doFLOWlabel{2}{1}{9}")) ;
flow_chart_draw_comment(2,1,1,"tl",0.2,textext("\doFLOWlabel{2}{1}{10}")) ;
flow_chart_draw_comment(2,1,1,"tr",0.2,textext("\doFLOWlabel{2}{1}{11}")) ;
flow_chart_draw_comment(2,1,1,"bl",0.2,textext("\doFLOWlabel{2}{1}{12}")) ;
flow_chart_draw_comment(2,1,1,"br",0.2,textext("\doFLOWlabel{2}{1}{13}")) ;
flow_chart_draw_comment(2,1,2,"tl",0,textext("\doFLOWlabel{2}{1}{14}")) ;
flow_chart_draw_comment(2,1,2,"tr",0,textext("\doFLOWlabel{2}{1}{15}")) ;
flow_chart_draw_comment(2,1,2,"bl",0,textext("\doFLOWlabel{2}{1}{16}")) ;
flow_chart_draw_comment(2,1,2,"br",0,textext("\doFLOWlabel{2}{1}{17}")) ;
flow_chart_draw_text(2,3,textext("\setvariables[flowcell:text][x=2,y=3,n=18,align={},figure={},overlay={},destination={}]")) ;
flow_chart_draw_exit(2,3,"t",textext("\doFLOWlabel{2}{3}{19}")) ;
flow_chart_draw_exit(2,3,"l",textext("\doFLOWlabel{2}{3}{20}")) ;
flow_chart_draw_exit(2,3,"r",textext("\doFLOWlabel{2}{3}{21}")) ;
flow_chart_draw_label(2,2,"tr",textext("\doFLOWlabel{2}{2}{22}")) ;
flow_chart_draw_label(2,2,"t",textext("\doFLOWlabel{2}{2}{23}")) ;
flow_chart_draw_label(2,2,"tl",textext("\doFLOWlabel{2}{2}{24}")) ;
flow_chart_draw_label(2,2,"br",textext("\doFLOWlabel{2}{2}{25}")) ;
flow_chart_draw_label(2,2,"b",textext("\doFLOWlabel{2}{2}{26}")) ;
flow_chart_draw_label(2,2,"bl",textext("\doFLOWlabel{2}{2}{27}")) ;
flow_chart_draw_label(2,2,"lb",textext("\doFLOWlabel{2}{2}{28}")) ;
flow_chart_draw_label(2,2,"l",textext("\doFLOWlabel{2}{2}{29}")) ;
flow_chart_draw_label(2,2,"lt",textext("\doFLOWlabel{2}{2}{30}")) ;
flow_chart_draw_label(2,2,"rb",textext("\doFLOWlabel{2}{2}{31}")) ;
flow_chart_draw_label(2,2,"r",textext("\doFLOWlabel{2}{2}{32}")) ;
flow_chart_draw_label(2,2,"rt",textext("\doFLOWlabel{2}{2}{33}")) ;
flow_chart_draw_text(2,4,textext("\setvariables[flowcell:text][x=2,y=4,n=34,align={},figure={},overlay={},destination={}]")) ;
flow_chart_draw_text(2,4,textext("\setvariables[flowcell:text][x=2,y=4,n=35,align={},figure={},overlay={},destination={}]")) ;
flow_end_chart ;
; endfig ;
% end graphic

