% begin graphic: n=0

; beginfig(1) ; defaultfont:="LMRoman-Regular*default"; CurrentLayout:=""; def OverlayLineColor=black enddef; def OverlayColor =black enddef; ; loadmodule "crop" ; page_marks_add_lines(597.50787pt,845.04684pt,14.22636pt,8.53581pt,0,0, false) ; ;; endfig ;
% end graphic

% begin graphic: n=1

; beginfig(1) ; defaultfont:="LMRoman-Regular*default"; CurrentLayout:=""; def OverlayLineColor=black enddef; def OverlayColor =black enddef; ; loadmodule "crop" ; page_marks_add_number(597.50787pt,845.04684pt,14.22636pt,8.53581pt,1) ; ;; endfig ;
% end graphic

